X: 24881
T: Magnie O' Da Daeks
R: jig
M: 6/8
K: Dmajor
|:B|A2 f fef|Bgg g2 g|afd dcd|fee e2 A|
A2 f fef|Bgg g2 g|afd cde|fdd d2:|
|:A/G/|FAd fdA|^GBe e2 d|cBA gfe|dfd A2 G|
FAd fdA|^GBe e2 d|cBA gfe|fdd d2:|

